site/corp/images/icons/icon-warranty.svg

<?xml version="1.0" encoding="UTF-8"?>
<svg width="32px" height="38px" viewBox="0 0 32 38" version="1.1" xmlns="http://www.w3.org/2000/svg" xmlns:xlink="http://www.w3.org/1999/xlink">
    <!-- Generator: Sketch 49 (51002) - http://www.bohemiancoding.com/sketch -->
    <title>Group 12</title>
    <desc>Created with Sketch.</desc>
    <defs></defs>
    <g id="1260" stroke="none" stroke-width="1" fill="none" fill-rule="evenodd">
        <g id="1260-index" transform="translate(-44.000000, -1321.000000)" fill="#FDCE34" fill-rule="nonzero">
            <g id="body" transform="translate(0.000000, 170.000000)">
                <g id="features" transform="translate(40.000000, 1150.000000)">
                    <g id="features-copy">
                        <g id="Group">
                            <g id="icon">
                                <g id="Group-12" transform="translate(4.000000, 1.000000)">
                                    <path d="M16.5025359,36.0533194 L16.4829229,36.0482279 L16.5417518,36.0635861 C16.5221467,36.0584055 16.5221467,36.0584055 16.5025359,36.0533194 Z M15.4974641,36.0533194 C15.4778533,36.0584055 15.4778533,36.0584055 15.4582204,36.0634782 L15.5170996,36.0482221 L15.4974641,36.0533194 Z M29.9925132,8.25553961 C27.6407009,7.32643218 23.0343457,5.32207599 16.0387276,2.190125 C15.5438192,2.40982444 14.998683,2.65135687 14.414421,2.90965253 C12.5781938,3.72142793 10.7301748,4.53324955 8.98825515,5.29127166 C8.84094501,5.35536347 8.84094501,5.35536347 8.6935654,5.41943481 C5.70681929,6.71761993 3.43933788,7.68132396 2.00743298,8.25061835 C2.20055256,25.9515479 6.17454706,33.1674023 16.0000001,35.9178339 C25.8245399,33.1676586 29.7987107,25.9528876 29.9925132,8.25553961 Z M1.42108547e-14,6.86389593 C2.04920658,6.23561861 16.0418963,0 16.0418963,0 C25.3144944,4.15707907 30.6338623,6.44504438 32,6.86389593 C32,27.503318 26.9737519,35.1243041 16.0418963,37.9782476 C5.0262628,35.1243264 2.13162821e-14,27.5033481 1.42108547e-14,6.86389593 Z" id="Combined-Shape"></path>
                                    <path d="M25.0874383,13.1727839 L25.8433761,15.0244205 C21.1559703,16.9380719 17.222131,20.2017696 14.0295946,24.8367902 L13.2776472,25.9284901 L12.4344361,24.905637 C9.86133144,21.7843449 7.93177681,19.5213941 6.65108061,18.1222686 L8.12635256,16.7718714 C9.29239159,18.0457371 10.9655301,19.9977204 13.1495176,22.6316951 C16.4196433,18.2441579 20.4021992,15.0855507 25.0874383,13.1727839 Z" id="Path-7"></path>
                                </g>
                            </g>
                        </g>
                    </g>
                </g>
            </g>
        </g>
    </g>
</svg>

<svg width="32" height="38" viewBox="0 0 32 38" xmlns="http://www.w3.org/2000/svg"><title>Group 12</title><g fill="#FDCE34"><path d="M16.503 36.053l-.02-.005.059.016-.04-.01zm-1.006 0l-.039.01.06-.015-.02.005zM29.993 8.256c-2.352-.93-6.959-2.934-13.954-6.066a1165.932 1165.932 0 0 1-7.05 3.101l-.295.128C5.707 6.718 3.439 7.681 2.007 8.251 2.201 25.95 6.175 33.167 16 35.918c9.825-2.75 13.799-9.965 13.993-27.662zM0 6.864C2.05 6.236 16.042 0 16.042 0 25.314 4.157 30.634 6.445 32 6.864c0 20.64-5.026 28.26-15.958 31.114C5.026 35.124 0 27.503 0 6.864z"/><path d="M25.087 13.173l.756 1.851c-4.687 1.914-8.62 5.178-11.813 9.813l-.752 1.091-.844-1.022c-2.573-3.122-4.502-5.385-5.783-6.784l1.475-1.35c1.166 1.274 2.84 3.226 5.024 5.86 3.27-4.388 7.252-7.546 11.937-9.46z"/></g></svg>
